message-image.svg

<svg fill="currentColor" viewBox="0 0 24 24"><path d="m5 14 3.5-4.5 2.5 3L14.5 8l4.5 6m1-12H4a2 2 0 0 0-2 2v18l4-4h14a2 2 0 0 0 2-2V4a2 2 0 0 0-2-2"/></svg>

<svg  viewBox="0 0 24 24" fill="currentColor"><path  d="M5,14L8.5,9.5L11,12.5L14.5,8L19,14M20,2H4A2,2 0 0,0 2,4V22L6,18H20A2,2 0 0,0 22,16V4C22,2.89 21.1,2 20,2Z"/></svg>
